X: 42
T:Reel. BF13.41
M:4/4
Q:180
S:J.Lishman()MS,c1825,Lakes,Browne Coll.
R:Reel
O:England
A:Lakes
Z:vmp.Chris Partington
K:F
f2cB AFFA|BAGF ECCc|f2cAf2cB|AcGEF2F2:|!
|:GFGA BABG|Gcce fcAF|GFGA BABG|cfd_d c2c2:|]
